apps/wathqny/public/icon.svg

<svg xmlns="http://www.w3.org/2000/svg" width="204" height="238" fill="none">
  <path fill="#08C136" d="M128.147 9.03507c1.807 4.61893 2.711 8.73583 2.711 12.35073 0 10.242-5.423 15.7647-16.267 16.568-4.217 0-8.535-1.1046-12.953-3.3136-2.0085-4.4182-3.0126-8.5351-3.0126-12.3507 0-10.6437 5.5226-16.06597 16.5676-16.26679 4.218 0 8.535 1.00412 12.954 3.01236Zm45.486 0c1.808 4.61893 2.711 8.73583 2.711 12.35073 0 10.242-5.422 15.7647-16.266 16.568-4.218 0-8.535-1.1046-12.954-3.3136-2.008-4.4182-3.012-8.5351-3.012-12.3507 0-10.6437 5.523-16.06597 16.568-16.26679 4.217 0 8.535 1.00412 12.953 3.01236ZM7.04946 162.063c0-11.045 1.6066-20.484 4.81974-28.316 3.4141-7.832 7.4305-13.857 12.0495-18.074 4.8198-4.218 9.3383-6.326 13.5557-6.326 3.414 0 6.2255 1.104 8.4346 3.313-3.6149 4.619-6.7276 10.745-9.3384 18.376-2.6107 7.43-3.916 16.166-3.916 26.207 0 16.267 5.5226 28.116 16.568 35.546 11.2461 7.632 27.4125 11.447 48.4991 11.447 25.7053 0 44.4823-4.418 56.3313-13.254 11.849-8.635 18.777-20.183 20.785-34.642-8.434 4.619-19.48 6.928-33.136 6.928-16.668 0-30.525-5.02-41.57-15.062-10.845-10.041-16.2672-23.195-16.2672-39.462 0-16.0656 5.0206-29.6212 15.0618-40.6666 10.0414-11.0453 22.9944-16.568 38.8594-16.568 18.476 0 33.237 7.9326 44.282 23.7977 11.246 15.6643 16.869 37.2529 16.869 64.7659 0 32.333-8.133 56.13-24.4 71.393-16.066 15.263-41.872 22.894-77.4178 22.894-30.927 0-53.7205-6.226-68.3807-18.677-14.4594-12.451-21.68904-30.324-21.68904-53.62Zm97.90154-53.017c0 16.869 12.351 25.705 37.052 26.508 13.054 0 23.999-2.309 32.835-6.928-.803-15.263-4.619-27.111-11.447-35.5459-6.828-8.6355-15.764-12.9532-26.81-12.9532-9.238 0-16.869 2.8115-22.894 8.4346-5.824 5.6231-8.736 12.4515-8.736 20.4845Z"/>
  <path fill="#08C136" d="M94 89.0121c0-12.325 10.031-22.3165 22.405-22.3165h39.209c12.374 0 22.405 9.9915 22.405 22.3165v39.0539c0 12.325-10.031 22.316-22.405 22.316h-39.209c-12.374 0-22.405-9.991-22.405-22.316V89.0121Z"/>
  <path fill="#fff" fill-rule="evenodd" d="M113.044 87.8144c0-3.2482 2.249-5.8813 5.024-5.8813h35.883c2.774 0 5.024 2.6331 5.024 5.8813s-2.25 5.8813-5.024 5.8813h-35.883c-2.775 0-5.024-2.6331-5.024-5.8813ZM109.123 108.539c0-3.248 2.634-5.881 5.882-5.881h42.009c3.248 0 5.881 2.633 5.881 5.881s-2.633 5.881-5.881 5.881h-42.009c-3.248 0-5.882-2.633-5.882-5.881ZM113.044 129.264c0-3.248 2.249-5.882 5.024-5.882h35.883c2.774 0 5.024 2.634 5.024 5.882 0 3.248-2.25 5.881-5.024 5.881h-35.883c-2.775 0-5.024-2.633-5.024-5.881Z" clip-rule="evenodd"/>
</svg>

<svg width="204" height="238" viewBox="0 0 204 238" fill="none" xmlns="http://www.w3.org/2000/svg">
<path d="M128.147 9.03507C129.954 13.654 130.858 17.7709 130.858 21.3858C130.858 31.6278 125.435 37.1505 114.591 37.9538C110.374 37.9538 106.056 36.8492 101.638 34.6402C99.6295 30.222 98.6254 26.1051 98.6254 22.2895C98.6254 11.6458 104.148 6.22353 115.193 6.02271C119.411 6.02271 123.728 7.02683 128.147 9.03507ZM173.633 9.03507C175.441 13.654 176.344 17.7709 176.344 21.3858C176.344 31.6278 170.922 37.1505 160.078 37.9538C155.86 37.9538 151.543 36.8492 147.124 34.6402C145.116 30.222 144.112 26.1051 144.112 22.2895C144.112 11.6458 149.635 6.22353 160.68 6.02271C164.897 6.02271 169.215 7.02683 173.633 9.03507ZM7.04946 162.063C7.04946 151.018 8.65606 141.579 11.8692 133.747C15.2833 125.915 19.2997 119.89 23.9187 115.673C28.7385 111.455 33.257 109.347 37.4744 109.347C40.8884 109.347 43.6999 110.451 45.909 112.66C42.2941 117.279 39.1814 123.405 36.5706 131.036C33.9599 138.466 32.6546 147.202 32.6546 157.243C32.6546 173.51 38.1772 185.359 49.2226 192.789C60.4687 200.421 76.6351 204.236 97.7217 204.236C123.427 204.236 142.204 199.818 154.053 190.982C165.902 182.347 172.83 170.799 174.838 156.34C166.404 160.959 155.358 163.268 141.702 163.268C125.034 163.268 111.177 158.248 100.132 148.206C89.287 138.165 83.8648 125.011 83.8648 108.744C83.8648 92.6784 88.8854 79.1228 98.9266 68.0774C108.968 57.0321 121.921 51.5094 137.786 51.5094C156.262 51.5094 171.023 59.442 182.068 75.3071C193.314 90.9714 198.937 112.56 198.937 140.073C198.937 172.406 190.804 196.203 174.537 211.466C158.471 226.729 132.665 234.36 97.1192 234.36C66.1922 234.36 43.3987 228.134 28.7385 215.683C14.2791 203.232 7.04946 185.359 7.04946 162.063ZM104.951 109.046C104.951 125.915 117.302 134.751 142.003 135.554C155.057 135.554 166.002 133.245 174.838 128.626C174.035 113.363 170.219 101.515 163.391 93.0801C156.563 84.4446 147.627 80.1269 136.581 80.1269C127.343 80.1269 119.712 82.9384 113.687 88.5615C107.863 94.1846 104.951 101.013 104.951 109.046Z" fill="#08C136"/>
<path d="M94 89.0121C94 76.6871 104.031 66.6956 116.405 66.6956H155.614C167.988 66.6956 178.019 76.6871 178.019 89.0121V128.066C178.019 140.391 167.988 150.382 155.614 150.382H116.405C104.031 150.382 94 140.391 94 128.066V89.0121Z" fill="#08C136"/>
<path fill-rule="evenodd" clip-rule="evenodd" d="M113.044 87.8144C113.044 84.5662 115.293 81.9331 118.068 81.9331H153.951C156.725 81.9331 158.975 84.5662 158.975 87.8144C158.975 91.0626 156.725 93.6957 153.951 93.6957H118.068C115.293 93.6957 113.044 91.0626 113.044 87.8144Z" fill="white"/>
<path fill-rule="evenodd" clip-rule="evenodd" d="M109.123 108.539C109.123 105.291 111.757 102.658 115.005 102.658H157.014C160.262 102.658 162.895 105.291 162.895 108.539C162.895 111.787 160.262 114.42 157.014 114.42H115.005C111.757 114.42 109.123 111.787 109.123 108.539Z" fill="white"/>
<path fill-rule="evenodd" clip-rule="evenodd" d="M113.044 129.264C113.044 126.016 115.293 123.382 118.068 123.382H153.951C156.725 123.382 158.975 126.016 158.975 129.264C158.975 132.512 156.725 135.145 153.951 135.145H118.068C115.293 135.145 113.044 132.512 113.044 129.264Z" fill="white"/>
</svg>
